!!!OTL: ES WAR EINE SCHOENE JUEDIN
!!!ARE: Europa, Mitteleuropa, Deutschland, Oberrhein
!!!SCT: E0098
!!!YEM: Copyright 1995, estate of Helmut Schaffrath.
**kern
*ICvox
*Ivox
*M4/4
*k[f#c#]
*D:
{4d
=1
4d
8f#
8g
4a
8e
8g
=2
4f#
4e
4d}
{4a
=3
8a
8dd
8cc#
8b
4cc#
4b
=4
2a
4r}
{4a
=5
4a
4a
4dd
4b
=6
2a
4f#}
{8f#
8g
=7
4a
4a
4dd
4b
=8
2a
4f#}
{8b
8a
=9
4.g
8f#
4g
4a
=10
2f#
4r}
{4a
=11
4a
4a
4dd
4b
=12
2a
4f#}
{8f#
8g
=13
4a
4a
4dd
4b
=14
2a
4f#}
{8b
8a
=15
4.g
8f#
4g
4a
=16
2f#
4r}
==
!!!AGN: erzaehlendes Volks - Lied, Sage, Liebe, Leid, Ballade ?
!!!ONB: ESAC (Essen Associative Code) Database: ERK1
!!!AMT: simple quadruple
!!!AIN: vox
!!!EED: Helmut Schaffrath
!!!EEV: 1.0
*-
